Numix/24/emotes/face-worried.svg

<?xml version="1.0" encoding="UTF-8" standalone="no"?>
<svg
   xmlns:dc="http://purl.org/dc/elements/1.1/"
   xmlns:cc="http://creativecommons.org/ns#"
   xmlns:rdf="http://www.w3.org/1999/02/22-rdf-syntax-ns#"
   xmlns:svg="http://www.w3.org/2000/svg"
   xmlns="http://www.w3.org/2000/svg"
   xmlns:sodipodi="http://sodipodi.sourceforge.net/DTD/sodipodi-0.dtd"
   xmlns:inkscape="http://www.inkscape.org/namespaces/inkscape"
   width="24px"
   height="24px"
   viewBox="0 0 18 18"
   version="1.1"
   id="svg784"
   inkscape:version="0.91 r"
   sodipodi:docname="face-worried.svg">
  <metadata
     id="metadata799">
    <rdf:RDF>
      <cc:Work
         rdf:about="">
        <dc:format>image/svg+xml</dc:format>
        <dc:type
           rdf:resource="http://purl.org/dc/dcmitype/StillImage" />
      </cc:Work>
    </rdf:RDF>
  </metadata>
  <defs
     id="defs797" />
  <sodipodi:namedview
     pagecolor="#ffffff"
     bordercolor="#666666"
     borderopacity="1"
     objecttolerance="10"
     gridtolerance="10"
     guidetolerance="10"
     inkscape:pageopacity="0"
     inkscape:pageshadow="2"
     inkscape:window-width="640"
     inkscape:window-height="480"
     id="namedview795" />
  <g
     id="surface1">
    <path
       style=" stroke:none;fill-rule:nonzero;fill:rgb(100%,85.490196%,36.862745%);fill-opacity:1;"
       d="M 15.75 9 C 15.75 12.210938 12.726562 14.8125 9 14.8125 C 5.273438 14.8125 2.25 12.210938 2.25 9 C 2.25 5.789062 5.273438 3.1875 9 3.1875 C 12.726562 3.1875 15.75 5.789062 15.75 9 Z M 15.75 9 "
       id="path787" />
    <path
       style=" stroke:none;fill-rule:nonzero;fill:rgb(39.607843%,39.607843%,39.607843%);fill-opacity:1;"
       d="M 12.1875 7.3125 C 12.1875 6.585938 11.769531 6 11.25 6 C 10.730469 6 10.3125 6.585938 10.3125 7.3125 C 10.3125 8.039062 10.730469 8.625 11.25 8.625 C 11.769531 8.625 12.1875 8.039062 12.1875 7.3125 Z M 12.1875 7.3125 "
       id="path789" />
    <path
       style=" stroke:none;fill-rule:nonzero;fill:rgb(39.607843%,39.607843%,39.607843%);fill-opacity:1;"
       d="M 7.6875 7.3125 C 7.6875 6.585938 7.269531 6 6.75 6 C 6.230469 6 5.8125 6.585938 5.8125 7.3125 C 5.8125 8.039062 6.230469 8.625 6.75 8.625 C 7.269531 8.625 7.6875 8.039062 7.6875 7.3125 Z M 7.6875 7.3125 "
       id="path791" />
    <path
       style=" stroke:none;fill-rule:nonzero;fill:rgb(39.607843%,39.607843%,39.607843%);fill-opacity:1;"
       d="M 10.242188 12.367188 C 9.863281 12.335938 9.417969 12.207031 8.671875 11.910156 C 8.191406 11.71875 8.019531 11.664062 7.808594 11.636719 C 7.613281 11.609375 7.488281 11.609375 7.351562 11.671875 C 7.160156 11.75 7.050781 11.925781 7.015625 12.210938 L 7 12.375 L 6.375 12.375 L 6.375 12.222656 C 6.375 11.941406 6.46875 11.671875 6.632812 11.472656 C 6.695312 11.390625 6.835938 11.273438 6.929688 11.222656 C 7.023438 11.171875 7.191406 11.113281 7.316406 11.085938 C 7.480469 11.054688 7.804688 11.054688 7.996094 11.085938 C 8.289062 11.136719 8.605469 11.238281 9.269531 11.496094 C 9.855469 11.726562 10.117188 11.792969 10.40625 11.796875 C 10.554688 11.796875 10.574219 11.792969 10.644531 11.765625 C 10.777344 11.714844 10.882812 11.609375 10.9375 11.460938 C 10.964844 11.394531 10.996094 11.222656 10.996094 11.152344 L 10.996094 11.0625 L 11.625 11.0625 L 11.625 11.203125 C 11.625 11.332031 11.609375 11.46875 11.578125 11.585938 C 11.472656 12 11.164062 12.269531 10.703125 12.347656 C 10.609375 12.375 10.339844 12.375 10.242188 12.375 Z M 10.242188 12.367188 "
       id="path793" />
  </g>
</svg>

<svg xmlns="http://www.w3.org/2000/svg" width="24" height="24" viewBox="0 0 18 18">
 <g>
  <path d="m 15.75 9 c 0 3.211 -3.02 5.813 -6.75 5.813 c -3.727 0 -6.75 -2.602 -6.75 -5.813 c 0 -3.211 3.02 -5.813 6.75 -5.813 c 3.727 0 6.75 2.602 6.75 5.813 m 0 0" style="fill:#ffd95d;fill-opacity:1;stroke:none;fill-rule:nonzero"/>
  <path d="m 12.188 7.313 c 0 -0.727 -0.418 -1.313 -0.938 -1.313 c -0.52 0 -0.938 0.586 -0.938 1.313 c 0 0.727 0.418 1.313 0.938 1.313 c 0.52 0 0.938 -0.586 0.938 -1.313 m 0 0" style="fill:#646464;fill-opacity:1;stroke:none;fill-rule:nonzero"/>
  <path d="m 7.688 7.313 c 0 -0.727 -0.418 -1.313 -0.938 -1.313 c -0.52 0 -0.938 0.586 -0.938 1.313 c 0 0.727 0.418 1.313 0.938 1.313 c 0.52 0 0.938 -0.586 0.938 -1.313 m 0 0" style="fill:#646464;fill-opacity:1;stroke:none;fill-rule:nonzero"/>
  <path d="m 10.242 12.367 c -0.379 -0.031 -0.824 -0.16 -1.57 -0.457 c -0.48 -0.191 -0.652 -0.246 -0.863 -0.273 c -0.195 -0.027 -0.32 -0.027 -0.457 0.035 c -0.191 0.078 -0.301 0.254 -0.336 0.539 l -0.016 0.164 l -0.625 0 l 0 -0.152 c 0 -0.281 0.094 -0.551 0.258 -0.75 c 0.063 -0.082 0.203 -0.199 0.297 -0.25 c 0.094 -0.051 0.262 -0.109 0.387 -0.137 c 0.164 -0.031 0.488 -0.031 0.68 0 c 0.293 0.051 0.609 0.152 1.273 0.41 c 0.586 0.23 0.848 0.297 1.137 0.301 c 0.148 0 0.168 -0.004 0.238 -0.031 c 0.133 -0.051 0.238 -0.156 0.293 -0.305 c 0.027 -0.066 0.059 -0.238 0.059 -0.309 l 0 -0.09 l 0.629 0 l 0 0.141 c 0 0.129 -0.016 0.266 -0.047 0.383 c -0.105 0.414 -0.414 0.684 -0.875 0.762 c -0.094 0.027 -0.363 0.027 -0.461 0.027 m 0 -0.008" style="fill:#646464;fill-opacity:1;stroke:none;fill-rule:nonzero"/>
 </g>
</svg>
